!!!OTL: Die Brombeerpflueckerin Es wollt ein Maedel in der Frueh aufstehn
!!!ARE: Europa, Mitteleuropa, Deutschland / France, Lothringen, Forbach, Bousbach
!!!YOR: 7, S. 79
!!    1980 aufgezeichnet
!!!SCT: Q0147E
!!!YEM: Copyright 1995, estate of Helmut Schaffrath.
**kern
*ICvox
*Ivox
*M4/4
*k[f#]
*G:
{4d
=1
4g
4g
8g
8g
8e
8e
=2
4e
4d
4d}
{4d
=3
4d
4cc
4b
4a
=4
4g
2r}
{8g
8a
=5
4.b
8g
4.b
8dd
=6
4dd
4cc
4a
8r}
{8dd
=7
4.dd
8dd
4.dd
8cc
=8
4cc
4b
4g}
{8b
8b
=9
4b
4a
4d
4f#
=10
4g
4a
4b}
{8g
8a
=11
4b
8r
8b
4b
8r
8dd
=12
4dd
4cc
4a
8r}
{8dd
=13
4.dd
8dd
4.dd
8dd
=14
4dd
4cc
4b}
{8d
8cc
=15
4b
4b
4cc
4f#
=16
8.g
16g
8b
8a
4g}
==
!!!AGN: Ballade, Verfuehrung, Schwangerschaft
!! Transkription einer Tonaufnahme. Verzierung (Glissando) .
!!    Vierte und siebte Zeile refrainartig.
!!!ONB: ESAC (Essen Associative Code) Database: BALLADE
!!!AMT: simple quadruple
!!!AIN: vox
!!!EED: Helmut Schaffrath
!!!EEV: 1.0
*-
